contributed-vectors/infinity.svg

<svg width="192" height="192" viewBox="0 0 192 192" fill="none" xmlns="http://www.w3.org/2000/svg">
<path d="M70.2654 143.162C70.4477 141.954 69.6949 140.86 68.5227 140.515C66.4392 139.901 62.889 139.068 59.0438 139.103C55.2963 139.137 51.9706 139.989 49.9764 140.635C48.7827 141.022 48.0713 142.189 48.3555 143.411C49.0997 146.611 51.4381 152.474 58.6163 153.007C67.5409 153.67 69.7293 146.716 70.2654 143.162Z" fill="#F9DE81"/>
<path d="M110.403 146.263C110.644 144.999 109.813 143.864 108.566 143.552C106.11 142.938 101.749 142.06 97.0115 142.103C92.4041 142.145 88.3283 143.05 85.9678 143.705C84.6826 144.061 83.893 145.294 84.2617 146.576C85.19 149.804 88.0202 155.495 96.4754 156.008C107.029 156.648 109.718 149.851 110.403 146.263Z" fill="#F9DE81"/>
<path d="M147.34 143.195C147.537 141.971 146.763 140.867 145.57 140.53C143.393 139.916 139.644 139.071 135.58 139.108C131.624 139.144 128.115 140.009 126.029 140.657C124.81 141.036 124.076 142.223 124.381 143.462C125.171 146.671 127.632 152.485 135.126 153.012C144.455 153.67 146.767 146.759 147.34 143.195Z" fill="#F9DE81"/>
<path d="M181.042 131.112C182.987 132.518 182.398 135.371 180.072 135.962C167.5 139.162 134.573 146.5 97 146.5C59.4162 146.5 27.0926 139.158 14.7955 135.96C12.4982 135.362 11.911 132.551 13.8197 131.14C25.3055 122.648 58.3748 101 97 101C135.584 101 169.268 122.602 181.042 131.112Z" fill="#BD9AFF"/>
<path d="M150.954 116.16C150.998 117.293 150.371 118.314 149.34 118.785C143.191 121.598 120.766 130.999 95.6932 130.999C70.7868 130.999 49.6451 121.723 43.6801 118.842C42.6439 118.342 42.0319 117.293 42.1268 116.147C43.0151 105.41 49.6257 51.4984 93 46.999C145.648 41.5377 150.506 104.502 150.954 116.16Z" fill="#FDF5D9"/>
<path fill-rule="evenodd" clip-rule="evenodd" d="M143.93 119.49C143.997 120.692 143.292 121.74 142.167 122.169C136.307 124.398 117.154 131 95.7968 131C74.6241 131 56.5729 124.512 50.8724 122.227C49.7281 121.769 49.0447 120.64 49.1801 119.415C49.7269 114.467 51.8233 101.334 59.3254 89.7158C57.3694 89.1794 56 87.9415 56 86.5C56 84.567 58.4625 83 61.5 83C62.4502 83 63.3441 83.1533 64.124 83.4232C70.677 76.1546 80.0506 70.4186 93.4496 69.2462C111.925 67.6296 123.648 74.1684 131.087 83.1167C131.538 83.0406 132.011 83 132.5 83C135.538 83 138 84.567 138 86.5C138 87.735 136.995 88.8205 135.477 89.4435C142.277 101.19 143.652 114.565 143.93 119.49Z" fill="#98DC9A"/>
<circle cx="85" cy="93" r="3" fill="#56595B"/>
<circle cx="81" cy="102" r="4" fill="#F9DE81"/>
<circle cx="110" cy="92" r="3" fill="#56595B"/>
<circle cx="113" cy="101" r="4" fill="#F9DE81"/>
<path d="M104 102.5C104 104.433 101.09 106 97.5 106C93.9101 106 91 104.433 91 102.5" stroke="#56595B" stroke-width="2" stroke-linecap="round"/>
<circle cx="37" cy="42" r="16" fill="#96DFD3"/>
<path fill-rule="evenodd" clip-rule="evenodd" d="M21.4945 45.1581C21.1716 44.3971 20.9999 43.3688 20.9999 42.0009C20.9999 41.8243 21.0028 41.6483 21.0085 41.4731C13.6962 44.7957 9.25778 48.2927 9.90635 50.7605C10.9592 54.7666 25.0196 54.5431 41.311 50.2613C57.6024 45.9796 69.9557 39.261 68.9028 35.2549C68.1421 32.3608 60.5927 31.6741 50.3178 33.1303C50.8956 33.996 51.3912 34.9213 51.7935 35.8949C56.0148 35.7389 58.8555 36.3671 59.2312 37.7968C59.9389 40.4894 51.6359 45.0052 40.6859 47.8831C29.736 50.761 20.2856 50.9112 19.5779 48.2186C19.3495 47.3495 20.0597 46.2906 21.4945 45.1581Z" fill="#FF837D"/>
<circle cx="120.5" cy="35.5" r="3.5" fill="#FDF5D9"/>
<circle cx="168.5" cy="31.5" r="3.5" fill="#FDF5D9"/>
<circle cx="181" cy="65" r="3" fill="#FDF5D9"/>
<path d="M165.488 45.2868C165.575 44.6366 166.254 44.2447 166.861 44.4946L170.279 45.9033C170.523 46.0038 170.797 46.0038 171.041 45.9033L174.46 44.4946C175.066 44.2447 175.745 44.6366 175.832 45.2868L176.321 48.9518C176.356 49.2134 176.493 49.4506 176.702 49.6117L179.632 51.868C180.151 52.2683 180.151 53.0522 179.632 53.4525L176.702 55.7088C176.493 55.8699 176.356 56.1071 176.321 56.3687L175.832 60.0337C175.745 60.6839 175.066 61.0758 174.46 60.8259L171.041 59.4172C170.797 59.3167 170.523 59.3167 170.279 59.4172L166.861 60.8259C166.254 61.0758 165.575 60.6839 165.488 60.0337L164.999 56.3687C164.964 56.1071 164.827 55.8699 164.618 55.7088L161.689 53.4525C161.169 53.0522 161.169 52.2683 161.689 51.868L164.618 49.6117C164.827 49.4506 164.964 49.2134 164.999 48.9518L165.488 45.2868Z" fill="#FDF5D9"/>
<path d="M144.618 27.3041C144.998 26.7693 145.781 26.739 146.201 27.2428L147.313 28.5768C147.482 28.7795 147.725 28.9072 147.987 28.932L149.717 29.0952C150.37 29.1568 150.788 29.8199 150.561 30.4357L149.962 32.066C149.871 32.3137 149.882 32.5874 149.992 32.8273L150.715 34.4065C150.988 35.0029 150.623 35.6963 149.976 35.8082L148.265 36.1045C148.005 36.1496 147.773 36.2956 147.62 36.5107L146.614 37.9267C146.235 38.4615 145.451 38.4918 145.031 37.988L143.919 36.654C143.75 36.4512 143.508 36.3236 143.245 36.2988L141.516 36.1356C140.862 36.074 140.445 35.4108 140.671 34.7951L141.27 33.1648C141.361 32.9171 141.35 32.6434 141.241 32.4034L140.517 30.8243C140.244 30.2279 140.609 29.5344 141.256 29.4225L142.967 29.1263C143.227 29.0812 143.459 28.9352 143.612 28.7201L144.618 27.3041Z" fill="#FDF5D9"/>
</svg>

<svg xmlns="http://www.w3.org/2000/svg" width="192" height="192" fill="none"><path fill="#F9DE81" d="M70.265 143.162c.183-1.208-.57-2.302-1.742-2.647-2.084-.614-5.634-1.447-9.48-1.412-3.747.034-7.072.886-9.067 1.532-1.193.387-1.905 1.554-1.62 2.776.744 3.2 3.082 9.063 10.26 9.596 8.925.663 11.113-6.291 11.65-9.845ZM110.403 146.263c.241-1.264-.59-2.399-1.837-2.711-2.456-.614-6.817-1.492-11.555-1.449-4.607.042-8.683.947-11.043 1.602-1.285.356-2.075 1.589-1.706 2.871.928 3.228 3.758 8.919 12.213 9.432 10.554.64 13.243-6.157 13.928-9.745ZM147.34 143.195c.197-1.224-.577-2.328-1.77-2.665-2.177-.614-5.926-1.459-9.99-1.422-3.956.036-7.465.901-9.551 1.549-1.219.379-1.953 1.566-1.648 2.805.79 3.209 3.251 9.023 10.745 9.55 9.329.658 11.641-6.253 12.214-9.817Z"/><path fill="#BD9AFF" d="M181.042 131.112c1.945 1.406 1.356 4.259-.97 4.85C167.5 139.162 134.573 146.5 97 146.5c-37.584 0-69.907-7.342-82.204-10.54-2.298-.598-2.885-3.409-.976-4.82C25.305 122.648 58.375 101 97 101c38.584 0 72.268 21.602 84.042 30.112Z"/><path fill="#FDF5D9" d="M150.954 116.16a2.744 2.744 0 0 1-1.614 2.625c-6.149 2.813-28.574 12.214-53.647 12.214-24.906 0-46.048-9.276-52.013-12.157a2.72 2.72 0 0 1-1.553-2.695C43.015 105.41 49.626 51.498 93 46.999c52.648-5.461 57.506 57.503 57.954 69.161Z"/><path fill="#98DC9A" fill-rule="evenodd" d="M143.93 119.49c.067 1.202-.638 2.25-1.763 2.679-5.86 2.229-25.013 8.831-46.37 8.831-21.173 0-39.224-6.488-44.925-8.773a2.686 2.686 0 0 1-1.692-2.812c.547-4.948 2.643-18.081 10.145-29.7C57.37 89.18 56 87.943 56 86.5c0-1.933 2.462-3.5 5.5-3.5.95 0 1.844.153 2.624.423 6.553-7.268 15.927-13.004 29.326-14.177 18.475-1.616 30.198 4.922 37.637 13.87A8.498 8.498 0 0 1 132.5 83c3.038 0 5.5 1.567 5.5 3.5 0 1.235-1.005 2.32-2.523 2.944 6.8 11.746 8.175 25.121 8.453 30.046Z" clip-rule="evenodd"/><circle cx="85" cy="93" r="3" fill="#56595B"/><circle cx="81" cy="102" r="4" fill="#F9DE81"/><circle cx="110" cy="92" r="3" fill="#56595B"/><circle cx="113" cy="101" r="4" fill="#F9DE81"/><path stroke="#56595B" stroke-linecap="round" stroke-width="2" d="M104 102.5c0 1.933-2.91 3.5-6.5 3.5s-6.5-1.567-6.5-3.5"/><circle cx="37" cy="42" r="16" fill="#96DFD3"/><path fill="#FF837D" fill-rule="evenodd" d="M21.494 45.158c-.322-.76-.494-1.79-.494-3.157 0-.177.003-.353.009-.528-7.313 3.323-11.751 6.82-11.103 9.288 1.053 4.006 15.114 3.782 31.405-.5 16.291-4.281 28.645-11 27.592-15.006-.76-2.894-8.31-3.58-18.585-2.125a15.958 15.958 0 0 1 1.476 2.765c4.22-.156 7.062.472 7.437 1.902.708 2.692-7.595 7.208-18.545 10.086-10.95 2.878-20.4 3.028-21.108.336-.229-.87.482-1.928 1.916-3.06Z" clip-rule="evenodd"/><circle cx="120.5" cy="35.5" r="3.5" fill="#FDF5D9"/><circle cx="168.5" cy="31.5" r="3.5" fill="#FDF5D9"/><circle cx="181" cy="65" r="3" fill="#FDF5D9"/><path fill="#FDF5D9" d="M165.488 45.287a1 1 0 0 1 1.373-.792l3.418 1.408a1 1 0 0 0 .762 0l3.419-1.408a1 1 0 0 1 1.372.792l.489 3.665a1 1 0 0 0 .381.66l2.93 2.256a1 1 0 0 1 0 1.584l-2.93 2.257a1 1 0 0 0-.381.66l-.489 3.665a1 1 0 0 1-1.372.792l-3.419-1.409a1 1 0 0 0-.762 0l-3.418 1.409a1 1 0 0 1-1.373-.792l-.489-3.665a1 1 0 0 0-.381-.66l-2.929-2.257a1 1 0 0 1 0-1.584l2.929-2.256a1 1 0 0 0 .381-.66l.489-3.665ZM144.618 27.304a1 1 0 0 1 1.583-.061l1.112 1.334c.169.202.412.33.674.355l1.73.163a1 1 0 0 1 .844 1.34l-.599 1.631a1 1 0 0 0 .03.761l.723 1.58a1 1 0 0 1-.739 1.401l-1.711.297c-.26.045-.492.19-.645.406l-1.006 1.416a1 1 0 0 1-1.583.061l-1.112-1.334a.999.999 0 0 0-.674-.355l-1.729-.163a1 1 0 0 1-.845-1.34l.599-1.631c.091-.248.08-.522-.029-.762l-.724-1.579a1 1 0 0 1 .739-1.402l1.711-.296c.26-.045.492-.19.645-.406l1.006-1.416Z"/></svg>
